img/screen.svg

<?xml version="1.0" encoding="utf-8"?>
<!-- Generator: Adobe Illustrator 22.1.0, SVG Export Plug-In . SVG Version: 6.00 Build 0)  -->
<svg version="1.1" id="Слой_1" xmlns="http://www.w3.org/2000/svg" xmlns:xlink="http://www.w3.org/1999/xlink" x="0px" y="0px"
	 viewBox="0 0 900 200" style="enable-background:new 0 0 900 200;" xml:space="preserve">
<style type="text/css">
	.st0{fill:#6C9AFF;stroke-width:10;}
</style>
<path class="st0" d="M882,113.9c-0.3-0.1-35.8-13.2-104.2-26.6c-63.1-12.3-168-27.5-309.8-29.6c-5.1-0.1-10.5-0.1-17.3-0.2
	c0,0,0,0-0.1,0c0,0,0,0,0,0c-0.2,0-0.5,0-0.7,0c-0.2,0-0.5,0-0.7,0c0,0,0,0,0,0c0,0,0,0-0.1,0c-6.8,0-12.2,0.1-17.3,0.2
	c-141.8,2.1-246.7,17.3-309.8,29.6C53.7,100.7,18.3,113.7,18,113.9c-1.2,0.5-1.9,1.8-1.4,3.1c0.4,1,1.3,1.6,2.2,1.6
	c0.3,0,0.6,0,0.8-0.2C20,118.2,55,105.3,123.1,92c62.9-12.3,167.6-27.4,309-29.5c5.2-0.1,10.8-0.1,17.9-0.2c7.1,0,12.7,0.1,17.9,0.2
	c141.3,2.1,245.9,17.2,308.8,29.5c68.1,13.3,103.3,26.3,103.6,26.4c0.3,0.1,0.6,0.2,0.8,0.2c1,0,1.9-0.6,2.2-1.6
	C883.9,115.7,883.3,114.3,882,113.9z"/>
</svg>

<svg width="900" height="200" viewBox="0 0 900 200" fill="none" xmlns="http://www.w3.org/2000/svg">
<g clip-path="url(#clip0)">
<path d="M882 113.9C881.7 113.8 846.2 100.7 777.8 87.3C714.7 75 609.8 59.8 468 57.7C462.9 57.6 457.5 57.6 450.7 57.5C450.7 57.5 450.7 57.5 450.6 57.5C450.4 57.5 450.1 57.5 449.9 57.5C449.7 57.5 449.4 57.5 449.2 57.5C449.2 57.5 449.2 57.5 449.1 57.5C442.3 57.5 436.9 57.6 431.8 57.7C290 59.8 185.1 75 122 87.3C53.7 100.7 18.3 113.7 18 113.9C16.8 114.4 16.1 115.7 16.6 117C17 118 17.9 118.6 18.8 118.6C19.1 118.6 19.4 118.6 19.6 118.4C20 118.2 55 105.3 123.1 92C186 79.7 290.7 64.6 432.1 62.5C437.3 62.4 442.9 62.4 450 62.3C457.1 62.3 462.7 62.4 467.9 62.5C609.2 64.6 713.8 79.7 776.7 92C844.8 105.3 880 118.3 880.3 118.4C880.6 118.5 880.9 118.6 881.1 118.6C882.1 118.6 883 118 883.3 117C883.9 115.7 883.3 114.3 882 113.9Z" fill="#DDDDDD"/>
<g filter="url(#filter0_f)">
<path d="M882 119.9C881.7 119.8 846.2 106.7 777.8 93.3C714.7 81 609.8 65.8 468 63.7C462.9 63.6 457.5 63.6 450.7 63.5C450.7 63.5 450.7 63.5 450.6 63.5C450.4 63.5 450.1 63.5 449.9 63.5C449.7 63.5 449.4 63.5 449.2 63.5C449.2 63.5 449.2 63.5 449.1 63.5C442.3 63.5 436.9 63.6 431.8 63.7C290 65.8 185.1 81 122 93.3C53.7 106.7 18.3 119.7 18 119.9C16.8 120.4 16.1 121.7 16.6 123C17 124 17.9 124.6 18.8 124.6C19.1 124.6 19.4 124.6 19.6 124.4C20 124.2 55 111.3 123.1 98C186 85.7 290.7 70.6 432.1 68.5C437.3 68.4 442.9 68.4 450 68.3C457.1 68.3 462.7 68.4 467.9 68.5C609.2 70.6 713.8 85.7 776.7 98C844.8 111.3 880 124.3 880.3 124.4C880.6 124.5 880.9 124.6 881.1 124.6C882.1 124.6 883 124 883.3 123C883.9 121.7 883.3 120.3 882 119.9Z" fill="#DDDDDD" stroke="#DDDDDD" stroke-width="5" stroke-miterlimit="10"/>
</g>
</g>
<defs>
<filter id="filter0_f" x="-13" y="-7" width="926" height="226" filterUnits="userSpaceOnUse" color-interpolation-filters="sRGB">
<feFlood flood-opacity="0" result="BackgroundImageFix"/>
<feBlend mode="normal" in="SourceGraphic" in2="BackgroundImageFix" result="shape"/>
<feGaussianBlur stdDeviation="6.5" result="effect1_foregroundBlur"/>
</filter>
<clipPath id="clip0">
<rect width="900" height="200" fill="white"/>
</clipPath>
</defs>
</svg>
